32x32/apps/com.github.bharatkalluri.gifup.svg

<svg xmlns="http://www.w3.org/2000/svg" width="32" height="32" version="1.1">
 <g transform="translate(0,-1020.3622)">
  <path style="opacity:0.2" d="m 3.810643,1023.3632 c -0.9930649,-0.032 -1.8106832,0.7234 -1.8106429,2.0946 l 0,11.8724 0,11.8742 c -4.003e-4,1.881 1.4750024,2.7088 2.6545985,1.7674 l 7.2301604,-5.7634 7.231538,-5.7633 c 1.178271,-0.9403 1.178271,-3.2883 0,-4.2285 l -7.231538,-5.7634 -7.2301604,-5.7633 c -0.2570157,-0.205 -0.5472415,-0.3173 -0.8439556,-0.3267 z"/>
  <path style="opacity:0.2" d="m 8.810643,1023.3632 c -0.9930648,-0.032 -1.8106831,0.7234 -1.8106429,2.0946 l 0,11.8724 0,11.8742 c -4.002e-4,1.881 1.4750025,2.7088 2.6545985,1.7674 l 7.2301594,-5.7634 7.231539,-5.7633 c 1.178271,-0.9403 1.178271,-3.2883 0,-4.2285 l -7.231539,-5.7634 -7.2301594,-5.7633 c -0.2570158,-0.205 -0.5472415,-0.3173 -0.8439556,-0.3267 z"/>
  <path style="opacity:0.2" d="m 13.810643,1023.3632 c -0.993065,-0.032 -1.810683,0.7234 -1.810643,2.0946 l 0,11.8724 0,11.8742 c -4e-4,1.881 1.475002,2.7088 2.654598,1.7674 l 7.23016,-5.7634 7.231539,-5.7633 c 1.178271,-0.9403 1.178271,-3.2883 0,-4.2285 l -7.231539,-5.7634 -7.23016,-5.7633 c -0.257015,-0.205 -0.547241,-0.3173 -0.843955,-0.3267 z"/>
  <path style="fill:#358be1" d="m 3.810643,1022.3632 c -0.9930649,-0.032 -1.8106832,0.7234 -1.8106429,2.0946 l 0,11.8724 0,11.8742 c -4.003e-4,1.881 1.4750024,2.7088 2.6545985,1.7674 l 7.2301604,-5.7634 7.231538,-5.7633 c 1.178271,-0.9403 1.178271,-3.2883 0,-4.2285 l -7.231538,-5.7634 -7.2301604,-5.7633 c -0.2570157,-0.205 -0.5472415,-0.3173 -0.8439556,-0.3267 z"/>
  <path style="opacity:0.2;fill:#f4f4f7" transform="translate(0,1020.3622)" d="M 3.8105469 2.0019531 C 2.817482 1.9699531 1.9999597 2.7245031 2 4.0957031 L 2 5.0957031 C 1.9999597 3.7245031 2.817482 2.9699531 3.8105469 3.0019531 C 4.107261 3.0113531 4.3972812 3.123125 4.6542969 3.328125 L 11.884766 9.0917969 L 19.117188 14.853516 C 19.585857 15.22749 19.859245 15.826493 19.955078 16.46875 C 20.100177 15.49631 19.826789 14.419742 19.117188 13.853516 L 11.884766 8.0917969 L 4.6542969 2.328125 C 4.3972812 2.123125 4.107261 2.0113531 3.8105469 2.0019531 z"/>
  <path style="fill:#f4f4f7" d="m 8.810643,1022.3632 c -0.9930648,-0.032 -1.8106831,0.7234 -1.8106429,2.0946 l 0,11.8724 0,11.8742 c -4.002e-4,1.881 1.4750025,2.7088 2.6545985,1.7674 l 7.2301594,-5.7634 7.231539,-5.7633 c 1.178271,-0.9403 1.178271,-3.2883 0,-4.2285 l -7.231539,-5.7634 -7.2301594,-5.7633 c -0.2570158,-0.205 -0.5472415,-0.3173 -0.8439556,-0.3267 z"/>
  <path style="opacity:0.2;fill:#f4f4f7" transform="translate(0,1020.3622)" d="M 8.8105469 2.0019531 C 7.8174821 1.9699531 6.9999598 2.7245031 7 4.0957031 L 7 5.0957031 C 6.9999598 3.7245031 7.8174821 2.9699531 8.8105469 3.0019531 C 9.107261 3.0113531 9.3972811 3.123125 9.6542969 3.328125 L 16.884766 9.0917969 L 24.117188 14.853516 C 24.585857 15.22749 24.859245 15.826493 24.955078 16.46875 C 25.100177 15.49631 24.826789 14.419742 24.117188 13.853516 L 16.884766 8.0917969 L 9.6542969 2.328125 C 9.3972811 2.123125 9.107261 2.0113531 8.8105469 2.0019531 z"/>
  <path style="fill:#f47329" d="m 13.810643,1022.3632 c -0.993065,-0.032 -1.810683,0.7234 -1.810643,2.0946 l 0,11.8724 0,11.8742 c -4e-4,1.881 1.475002,2.7088 2.654598,1.7674 l 7.23016,-5.7634 7.231539,-5.7633 c 1.178271,-0.9403 1.178271,-3.2883 0,-4.2285 l -7.231539,-5.7634 -7.23016,-5.7633 c -0.257015,-0.205 -0.547241,-0.3173 -0.843955,-0.3267 z"/>
  <path style="opacity:0.2;fill:#f4f4f7" transform="translate(0,1020.3622)" d="M 13.810547 2.0019531 C 12.817482 1.9699531 11.99996 2.7245031 12 4.0957031 L 12 5.0957031 C 11.99996 3.7245031 12.817482 2.9699531 13.810547 3.0019531 C 14.107261 3.0113531 14.397282 3.123125 14.654297 3.328125 L 21.884766 9.0917969 L 29.117188 14.853516 C 29.585857 15.22749 29.859245 15.826493 29.955078 16.46875 C 30.100177 15.49631 29.826789 14.419742 29.117188 13.853516 L 21.884766 8.0917969 L 14.654297 2.328125 C 14.397282 2.123125 14.107261 2.0113531 13.810547 2.0019531 z"/>
 </g>
</svg>

<svg xmlns="http://www.w3.org/2000/svg" width="32" height="32"><path style="opacity:.2" d="M3.81 1023.363c-.992-.032-1.81.724-1.81 2.095V1049.204c0 1.881 1.475 2.71 2.655 1.768l7.23-5.764 7.231-5.763c1.179-.94 1.179-3.288 0-4.228l-7.231-5.764-7.23-5.763a1.423 1.423 0 0 0-.844-.327z" transform="translate(0 -1020.362)"/><path style="opacity:.2" d="M8.81 1023.363c-.992-.032-1.81.724-1.81 2.095V1049.204c0 1.881 1.475 2.71 2.655 1.768l7.23-5.764 7.231-5.763c1.179-.94 1.179-3.288 0-4.228l-7.231-5.764-7.23-5.763a1.423 1.423 0 0 0-.844-.327z" transform="translate(0 -1020.362)"/><path style="opacity:.2" d="M13.81 1023.363c-.992-.032-1.81.724-1.81 2.095V1049.204c0 1.881 1.475 2.71 2.655 1.768l7.23-5.764 7.231-5.763c1.179-.94 1.179-3.288 0-4.228l-7.231-5.764-7.23-5.763a1.423 1.423 0 0 0-.844-.327z" transform="translate(0 -1020.362)"/><path style="fill:#358be1" d="M3.81 1022.363c-.992-.032-1.81.724-1.81 2.095V1048.204c0 1.881 1.475 2.71 2.655 1.768l7.23-5.764 7.231-5.763c1.179-.94 1.179-3.288 0-4.228l-7.231-5.764-7.23-5.763a1.423 1.423 0 0 0-.844-.327z" transform="translate(0 -1020.362)"/><path style="opacity:.2;fill:#f4f4f7" d="M3.81 2.002C2.818 1.97 2 2.725 2 4.096v1c0-1.371.817-2.126 1.81-2.094.297.01.587.121.844.326l7.23 5.764 7.233 5.762c.469.373.742.972.838 1.615.145-.973-.128-2.05-.838-2.615l-7.232-5.762-7.23-5.764a1.422 1.422 0 0 0-.844-.326z"/><path style="fill:#f4f4f7" d="M8.81 1022.363c-.992-.032-1.81.724-1.81 2.095V1048.204c0 1.881 1.475 2.71 2.655 1.768l7.23-5.764 7.231-5.763c1.179-.94 1.179-3.288 0-4.228l-7.231-5.764-7.23-5.763a1.423 1.423 0 0 0-.844-.327z" transform="translate(0 -1020.362)"/><path style="opacity:.2;fill:#f4f4f7" d="M8.81 2.002C7.818 1.97 7 2.725 7 4.096v1c0-1.371.817-2.126 1.81-2.094.297.01.587.121.844.326l7.23 5.764 7.233 5.762c.469.373.742.972.838 1.615.145-.973-.128-2.05-.838-2.615l-7.232-5.762-7.23-5.764a1.422 1.422 0 0 0-.844-.326z"/><path style="fill:#f47329" d="M13.81 1022.363c-.992-.032-1.81.724-1.81 2.095V1048.204c0 1.881 1.475 2.71 2.655 1.768l7.23-5.764 7.231-5.763c1.179-.94 1.179-3.288 0-4.228l-7.231-5.764-7.23-5.763a1.423 1.423 0 0 0-.844-.327z" transform="translate(0 -1020.362)"/><path style="opacity:.2;fill:#f4f4f7" d="M13.81 2.002C12.818 1.97 12 2.725 12 4.096v1c0-1.371.817-2.126 1.81-2.094.297.01.587.121.844.326l7.23 5.764 7.233 5.762c.469.373.742.972.838 1.615.145-.973-.128-2.05-.838-2.615l-7.232-5.762-7.23-5.764a1.422 1.422 0 0 0-.844-.326z"/></svg>
